X: 40626
T: Too Late To Sleep
R: reel
M: 4/4
K: Dmajor
[V:T1]|:FAcA FAdA|.c2{Bc}B2 A2AG|FAGF FGGF|EGFE FAD2|
[V:T2]|:DFAF DFBF|.A2{GA}G2 F2FE|DFED DEED|CEDC DFA,2|
[V:T1]FAcA FAdA|.c2{Bc}B2 A2AG|FAGF FGGF|1 EGFE D2D2:|2 EGFE DEFG||
[V:T2]DFAF DFBF|.A2{GA}G2 F2FE|DFED DEED|1 CEDC A,2A,2:|2 CEDC A,CDE||
[V:T1]|:F2c2-cAGF|F2d2- d3A|ABGA FGEF|DEFG FBAG|
[V:T2]|:D2E2-EDFE|D2F2- F4|FGEF DECD|A,CDE DFED|
[V:T1]F2c2-cAGF|F2d2- d3A|ABGA FGEF|1 FGFE DEFG:|2 FGFE D4||
[V:T2]D2E2-EDFE|D2F2- F4|FGEF DECD|1 DEDC A,CDE:|2 A,CDE D4||

